X: 192
T: Strathlorne Jig
T: Jig, G
C: Neil Archie Beaton
L: 1/16
M: 6/8
K: G
|: B2c2| d4g2 B4d2| G4E2 D4C2| B,2D2G2 G2A2B2| c2A2F2 D2F2A2| c4e2 A4c2| F4E2 D4C2| B,2D2G2 c2B2A2| G6 G2:| 
B2c2| d4b2 b4g2| a4f2 g4B2| c2B2c2 A2B2c2| e2d2B2 G2B2d2| g4b2 f4a2| g4e2 d4B2| c2d2e2 d2e2f2| g6 g4a2| 
b2g2b2 a2f2d2| g2f2e2 d2B2G2| c2d2e2 d2e2g2| d2B2G2 A2F2D2| G2A2B2 c2B2A2| G2B2d2 g4g2| f2e2d2 c2B2A2| G6 G4|| 
D: Buddy MacMaster, Judique on the Floor, ACD-9020
